X: 10
T: Mrs. Kinney's
Z: leprecawn
S: https://thesession.org/tunes/480#setting51859
R: waltz
M: 3/4
L: 1/8
K: Dmaj
|:A2|f3 e dc|d4 FG|A2 G3 E|A,2 C2 E2|
g2 f2 e2|d2 c2 B2|A3B AG|F2 G2 A2|
f3 e dc|d4 FG|A2 G3 E|A,2 C2 E2|
g2 f2 e2|d2 c2 B2|A3 A Bc|d4:|
cB|:A2 f2 f2|A2 f2 f2|A2 f2 f2|a^g ba fe|A2 e2 e2|
A2 e2 e2|1 A2 e2 e2|ab ag fe:|2 ab ag fe|d4||
|:FA|d4 ed|c4 dc|B2 G2 B2|A2 F2 D2|
d4 cB|c4 BA|A2 G3 E|D4:|

%-------------------- TUNE SEPARATOR --------------------%

